X:1
T:Trim Your Lamps
T:Trim Your Lamps
T:E. F. Miller
T:Anonymous, before 1869
T:Public Domain Courtesy of the Cyber Hymnal™
T:Public Domain Courtesy of the Cyber Hymnal™
C:E. F. Miller
Z:Public Domain
Z:Courtesy of the Cyber Hymnal™
%%score ( 1 2 ) ( 3 4 )
L:1/8
Q:1/4=108
M:4/4
K:Ab
V:1 treble 
V:2 treble 
V:3 bass 
V:4 bass 
V:1
 [CE]2 | [CA]2 A2 [DA]2 (cB) | [EA]2 [CE]2 [CE]2 ([EG][FA]) | [GB]2 B2 [GB]2 (AB) | %4
w: 1.~Re-|joice, ye saints! the *|time draws near When *|Christ will in the *|
w: 2.~The|trum- pet sounds, the *|thun- ders roll; The *|heav- ens pass- ing *|
w: 3.~Poor|sin- ners then on *|earth will cry, While *|light- nings flash from *|
w: 4.~Come,|breth- ren all, and *|let us try To *|warn poor sin- ners, *|
 [Ec]2 [CA]2 [CA]2 [Ec]2 | [EB]2 [EAc]2 [EG]2 [^DF]2 | [B,E]6 ||"^Refrain" C[CE] | %8
w: clouds ap- pear, And|for His peo- ple|call.||
w: as a scroll; The|earth will burn with|fire.|Trim your|
w: out the sky, “O|mount- ains, on us|fall!”||
w: and to cry, “Be-|hold, the Bride- groom|comes!”||
 [EA]2 [EA]>[EB] [EA]!fermata![EG][EG]A | [GB]2 [GB]>[Ec] [EB]!fermata![EA][EA][Ac] | %10
w: ||
w: lamps, and be rea- dy, Trim your|lamps, and be rea- dy, Trim your|
w: ||
w: ||
 [Ae]2 [Ae]>[Af] [Ee][Ed][Ec][Fd] | [Ec]2 [DB]2 [CA]2 (3([CE][DF])[EG] | [CA]2 A2 [B,A]2 [EG][FA] | %13
w: |||
w: lamps, and be rea- dy For the|mid- night cry. For * the|mid- night cry, For the|
w: |||
w: |||
 [GB]2 B2 [GB]2 [Ac][Bd] | [Ae]2 [Ae]>[Af] [Ee][Ed][Ec][Fd] | [Ec]2 [DB]2 !fermata![CA]2 |] %16
w: |||
w: mid- night cry, Trim your|lamps and be rea- dy, For the|mid- night cry.|
w: |||
w: |||
V:2
 x2 | x2 (ED) x E2 x | x8 | x2 (BA) x E2 x | x8 | x8 | x6 || C x | x7 A | x8 | x8 | x8 | %12
 x2 (ED) x4 | x2 (BA) x4 | x8 | x6 |] %16
V:3
 [A,,A,]2 | [A,,E,]2 [E,A,]2 [A,,E,]2 ([E,A,][E,G,]) | [C,A,]2 A,2 [A,,A,]2 [E,B,]2 | %3
 [E,B,]2 E2 [E,E]2 ([A,C][G,B,]) | A,2 [A,,E,]2 [A,,E,]2 A,2 | [E,G,]2 [A,,C]2 [B,,B,]2 [B,,A,]2 | %6
 [E,G,]6 || [A,,A,][A,,A,] | [A,C]2 [C,E]>[D,D] [E,C][E,B,][E,B,][E,B,] | %9
 [E,D]2 [E,D]>[E,E] [E,D][A,C][A,C][A,E] | [A,C]2 [A,C]>[D,A,] [C,A,][B,,G,][A,,A,][D,A,] | %11
 [E,A,]2 [E,G,]2 [A,,A,]2 (3:2:2[A,,A,]2 [A,,A,] | [A,,E,]2 E,2 [A,,A,]2 [E,B,][E,B,] | %13
 [E,B,]2 E2 [E,E]2 [A,E][G,D] | [A,C]2 [A,C]>[D,A,] [C,A,][B,,G,][A,,A,][D,A,] | %15
 [E,A,]2 [E,G,]2 [A,,A,]2 |] %16
V:4
 x2 | x2 (C,B,,) x4 | x2 (C,B,,) x4 | x2 (G,F,) x4 | A,2 x2 A,2 x2 | x8 | x6 || x2 | x8 | x8 | x8 | %11
 x8 | x2 (C,B,,) x4 | x2 (G,F,) x4 | x8 | x6 |] %16

